X:444
%%etbk:tnset id:134,pos:1,rep:3x,ant:
%%etbk:wsite http://www.thesession.org/tunes/display/1308
%%etbk:pldat 2014-04-26T17:13
T: After The Battle Of Aughrim
Z: Piano Box Version by Martin Fleischmann
H: Created 2013-02-19 /  Last Modified 2013-02-19
M: 2/4
L: 1/8
R: march
K: Ador
|: "am"!1!E!3!A !1!A/B/c/d/| !5!ee/d/ !3!c!1!A | "G"!2!B!1!G !1!G/!2!F/!1!G/!2!A/ | !3!B/G/{c}A/!1!G/ !2!E/{G}E/!1!D/!4!G/ |
"am"!1!E!3!A !1!A/B/c/!4!d/ | !2!ee/d/ !2!e/!5!a/a/g/ | !2!e>!1!d "em"!2!B/!5!e/d/B/ | "am"!1!A2 A2 :|
|: "am"!3!a/{b}a/a/g/ !1!ef/g/ | !4!a/b/a/!3!g/ !1!ef/g/ | !4!a/b/a/f/ "G"!3!g/a/g/!2!e/ | !1!d/e/!1!d/!2!B/ !1!G2 |
"am"!3!a{b}a/g/ !1!ef/g/ | !4!a>b !4!a/g/e/!1!d/ | "G"!2!B!5!e dB | "am"!1!A2 A2 :|


